web/ui/src/assets/svgs/btn/del2.svg

<svg height="26" viewBox="0 0 26 26" width="26" xmlns="http://www.w3.org/2000/svg"><g fill="none" fill-rule="evenodd"><path d="m0 0h26v26h-26z" fill="#000" fill-rule="nonzero" opacity="0"/><path d="m21.9375 7.04166666h-.8125v14.62500004c0 .5746357-.2282731 1.1257358-.634602 1.5320647-.4063288.4063288-.9574289.6346019-1.5320647.6346019h-11.91666664c-.57463573 0-1.12573588-.2282731-1.5320647-.6346019-.40632882-.4063289-.63460197-.957429-.63460196-1.5320647v-14.62500004h-.8125c-.44873136 0-.8125-.36376864-.8125-.8125s.36376864-.8125.8125-.8125h17.875c.4487314 0 .8125.36376864.8125.8125s-.3637686.8125-.8125.8125zm-2.4375 0h-13v14.62500004c0 .1436589.05706828.2814339.15865048.3830161.10158221.1015823.23935724.1586505.38301618.1586505h11.91666664c.143659 0 .281434-.0570682.3830162-.1586505.1015822-.1015822.1586505-.2393572.1586505-.3830161zm-4.0625-3.25h-4.875c-.4487314 0-.8125-.36376864-.8125-.8125s.3637686-.8125.8125-.8125h4.875c.4487314 0 .8125.36376864.8125.8125s-.3637686.8125-.8125.8125zm0 15.16666664c-.4487314 0-.8125-.3637686-.8125-.8125v-7.0416666c0-.4487314.3637686-.8125.8125-.8125s.8125.3637686.8125.8125v7.0416666c0 .4487314-.3637686.8125-.8125.8125zm-4.875 0c-.4487314 0-.8125-.3637686-.8125-.8125v-7.0416666c0-.4487314.3637686-.8125.8125-.8125s.8125.3637686.8125.8125v7.0416666c0 .4487314-.3637686.8125-.8125.8125z" fill="#096dd9"/></g></svg>

<?xml version="1.0" encoding="UTF-8"?>
<svg width="26px" height="26px" viewBox="0 0 26 26" version="1.1" xmlns="http://www.w3.org/2000/svg" xmlns:xlink="http://www.w3.org/1999/xlink">
    <title>删除备份 10</title>
    <g id="页面-1" stroke="none" stroke-width="1" fill="none" fill-rule="evenodd">
        <g id="建木自动化-首页备份-4" transform="translate(-305.000000, -1038.000000)">
            <g id="删除备份-12" transform="translate(305.000000, 1038.000000)">
                <rect id="矩形" fill="#000000" fill-rule="nonzero" opacity="0" x="0" y="0" width="26" height="26"></rect>
                <path d="M21.9375,7.04166666 L21.125,7.04166666 L21.125,21.6666667 C21.125,22.2413024 20.8967269,22.7924025 20.490398,23.1987314 C20.0840692,23.6050602 19.5329691,23.8333333 18.9583333,23.8333333 L7.04166666,23.8333333 C6.46703093,23.8333333 5.91593078,23.6050602 5.50960196,23.1987314 C5.10327314,22.7924025 4.87499999,22.2413024 4.875,21.6666667 L4.875,7.04166666 L4.0625,7.04166666 C3.61376864,7.04166666 3.25,6.67789802 3.25,6.22916666 C3.25,5.7804353 3.61376864,5.41666666 4.0625,5.41666666 L21.9375,5.41666666 C22.3862314,5.41666666 22.75,5.7804353 22.75,6.22916666 C22.75,6.67789802 22.3862314,7.04166666 21.9375,7.04166666 Z M19.5,7.04166666 L6.5,7.04166666 L6.5,21.6666667 C6.5,21.8103256 6.55706828,21.9481006 6.65865048,22.0496828 C6.76023269,22.1512651 6.89800772,22.2083333 7.04166666,22.2083333 L18.9583333,22.2083333 C19.1019923,22.2083333 19.2397673,22.1512651 19.3413495,22.0496828 C19.4429317,21.9481006 19.5,21.8103256 19.5,21.6666667 L19.5,7.04166666 L19.5,7.04166666 Z M15.4375,3.79166666 L10.5625,3.79166666 C10.1137686,3.79166666 9.75,3.42789802 9.75,2.97916666 C9.75,2.5304353 10.1137686,2.16666666 10.5625,2.16666666 L15.4375,2.16666666 C15.8862314,2.16666666 16.25,2.5304353 16.25,2.97916666 C16.25,3.42789802 15.8862314,3.79166666 15.4375,3.79166666 Z M15.4375,18.9583333 C14.9887686,18.9583333 14.625,18.5945647 14.625,18.1458333 L14.625,11.1041667 C14.625,10.6554353 14.9887686,10.2916667 15.4375,10.2916667 C15.8862314,10.2916667 16.25,10.6554353 16.25,11.1041667 L16.25,18.1458333 C16.25,18.5945647 15.8862314,18.9583333 15.4375,18.9583333 Z M10.5625,18.9583333 C10.1137686,18.9583333 9.75,18.5945647 9.75,18.1458333 L9.75,11.1041667 C9.75,10.6554353 10.1137686,10.2916667 10.5625,10.2916667 C11.0112314,10.2916667 11.375,10.6554353 11.375,11.1041667 L11.375,18.1458333 C11.375,18.5945647 11.0112314,18.9583333 10.5625,18.9583333 Z" id="形状" fill="#096DD9"></path>
            </g>
        </g>
    </g>
</svg>
